assets/Infinity/Flat/infinity_flat.svg

<svg width="32" height="32" viewBox="0 0 32 32" fill="none" xmlns="http://www.w3.org/2000/svg">
<path d="M23.2821 9.00972C20.9421 8.88972 18.8621 9.88972 17.5021 11.5397C17.5021 11.5397 15.9721 13.5197 15.9721 13.5097C15.9721 13.5097 14.0421 16.0397 14.0521 16.0397L12.3921 18.2197L12.2621 18.3897C11.3121 19.6597 9.63206 20.3697 7.86206 19.8497C6.52206 19.4497 5.47206 18.3297 5.17206 16.9697C4.58206 14.3797 6.55206 12.0697 9.04206 12.0697C10.2521 12.0697 11.1521 12.5797 11.7721 13.1197C12.4321 13.6997 13.4421 13.6097 13.9821 12.9097C14.4521 12.2997 14.3921 11.4197 13.8321 10.8997C10.6721 7.99972 4.69206 8.65972 2.78206 12.6897C0.302058 17.9197 4.08206 23.0797 9.04206 23.0797C11.2221 23.0797 13.1721 22.1097 14.4621 20.5497L14.8921 19.9897C14.8921 19.9897 15.9821 18.5597 15.9821 18.5697C15.9821 18.5697 17.9121 16.0397 17.9021 16.0397L19.5921 13.8297C19.6321 13.7797 19.6721 13.7297 19.7121 13.6797C20.5821 12.4997 22.0821 11.8297 23.7321 12.1497C25.1921 12.4397 26.4021 13.5797 26.7621 15.0297C27.4221 17.6597 25.4421 20.0297 22.9121 20.0297C21.7221 20.0297 20.8221 19.5197 20.2021 18.9697C19.5421 18.3897 18.5221 18.4897 17.9921 19.1897C17.5021 19.8297 17.5921 20.7197 18.1921 21.2597C19.1221 22.0897 20.7121 23.0997 22.9121 23.0997C27.1121 23.0997 30.4621 19.4097 29.8921 15.0997C29.4521 11.7797 26.6121 9.17972 23.2821 9.00972Z" fill="#00A6ED"/>
</svg>

<svg xmlns="http://www.w3.org/2000/svg" width="32" height="32" fill="none"><path fill="#00A6ED" d="M23.282 9.01c-2.34-.12-4.42.88-5.78 2.53 0 0-1.53 1.98-1.53 1.97 0 0-1.93 2.53-1.92 2.53l-1.66 2.18-.13.17c-.95 1.27-2.63 1.98-4.4 1.46a3.923 3.923 0 0 1-2.69-2.88 3.985 3.985 0 0 1 3.87-4.9c1.21 0 2.11.51 2.73 1.05.66.58 1.67.49 2.21-.21.47-.61.41-1.49-.15-2.01-3.16-2.9-9.14-2.24-11.05 1.79-2.48 5.23 1.3 10.39 6.26 10.39 2.18 0 4.13-.97 5.42-2.53l.43-.56s1.09-1.43 1.09-1.42c0 0 1.93-2.53 1.92-2.53l1.69-2.21.12-.15c.87-1.18 2.37-1.85 4.02-1.53 1.46.29 2.67 1.43 3.03 2.88.66 2.63-1.32 5-3.85 5-1.19 0-2.09-.51-2.71-1.06a1.52 1.52 0 0 0-2.21.22c-.49.64-.4 1.53.2 2.07.93.83 2.52 1.84 4.72 1.84 4.2 0 7.55-3.69 6.98-8-.44-3.32-3.28-5.92-6.61-6.09Z"/></svg>
